outline/svg/local_library.svg

<svg xmlns="http://www.w3.org/2000/svg" width="24" height="24"><path fill="none" d="M0 0h24v24H0V0z"/><g fill="currentColor"><path d="M12 9c2.21 0 4-1.79 4-4s-1.79-4-4-4-4 1.79-4 4 1.79 4 4 4zm0-6c1.1 0 2 .9 2 2s-.9 2-2 2-2-.9-2-2 .9-2 2-2z"/><path d="M12 11.55C9.64 9.35 6.48 8 3 8v11c3.48 0 6.64 1.35 9 3.55 2.36-2.19 5.52-3.55 9-3.55V8c-3.48 0-6.64 1.35-9 3.55zm7 5.58c-2.53.34-4.93 1.3-7 2.82a15.2 15.2 0 0 0-7-2.83v-6.95c2.1.38 4.05 1.35 5.64 2.83L12 14.28l1.36-1.27A11.18 11.18 0 0 1 19 10.18v6.95z"/></g></svg>

<?xml version="1.0" encoding="utf-8"?>
<!-- Generator: Adobe Illustrator 19.1.0, SVG Export Plug-In . SVG Version: 6.00 Build 0)  -->
<svg version="1.1" xmlns="http://www.w3.org/2000/svg" xmlns:xlink="http://www.w3.org/1999/xlink" x="0px" y="0px" width="24px"
	 height="24px" viewBox="0 0 24 24" enable-background="new 0 0 24 24" xml:space="preserve">
<g id="Bounding_Boxes">
	<path fill="none" d="M0,0h24v24H0V0z"/>
</g>
<g id="Outline" fill="currentColor">
	<g id="ui_x5F_spec_x5F_header">
	</g>
	<g>
		<path d="M12,9c2.21,0,4-1.79,4-4s-1.79-4-4-4S8,2.79,8,5S9.79,9,12,9z M12,3c1.1,0,2,0.9,2,2s-0.9,2-2,2s-2-0.9-2-2S10.9,3,12,3z"
			/>
		<path d="M12,11.55C9.64,9.35,6.48,8,3,8v11c3.48,0,6.64,1.35,9,3.55c2.36-2.19,5.52-3.55,9-3.55V8C17.52,8,14.36,9.35,12,11.55z
			 M19,17.13c-2.53,0.34-4.93,1.3-7,2.82c-2.06-1.52-4.47-2.49-7-2.83v-6.95c2.1,0.38,4.05,1.35,5.64,2.83L12,14.28l1.36-1.27
			c1.59-1.48,3.54-2.45,5.64-2.83V17.13z"/>
	</g>
</g>
</svg>
